icons/lighthouse-filled.svg

<svg width="256" height="256" viewBox="0 0 256 256" fill="none" xmlns="http://www.w3.org/2000/svg">
<g clip-path="url(#clip0_679_2)">
<path d="M196 0H60C26.8629 0 0 26.8629 0 60V196C0 229.137 26.8629 256 60 256H196C229.137 256 256 229.137 256 196V60C256 26.8629 229.137 0 196 0Z" fill="#0066FF"/>
<path d="M175.875 139.084C167.116 139.084 160.016 131.983 160.016 123.224C160.016 114.465 167.116 107.365 175.875 107.365C184.133 107.365 190.916 113.677 191.666 121.738C191.742 122.557 192.401 123.224 193.222 123.224H199.664C201.767 123.224 203.784 124.06 205.271 125.547C206.758 127.034 207.594 129.051 207.594 131.154C207.594 133.257 206.758 135.274 205.271 136.761C203.784 138.248 201.767 139.084 199.664 139.084H175.875Z" fill="#5DBCEB"/>
<path d="M127.509 66.226L97.2775 85.1224C97.0636 85.256 96.8872 85.4419 96.7649 85.6624C96.6425 85.883 96.5783 86.131 96.5782 86.3832V117.773C96.5782 118.593 95.9121 119.26 95.0905 119.26H82.2064C82.011 119.259 81.8173 119.298 81.6368 119.372C81.4562 119.447 81.2922 119.557 81.154 119.695C81.0158 119.833 80.9063 119.997 80.8316 120.178C80.7569 120.358 80.7186 120.552 80.7188 120.747V137.596C80.7188 138.418 81.3849 139.084 82.2064 139.084H94.8764C95.7773 139.084 96.4703 139.877 96.3498 140.77L80.9472 254.361C80.9186 254.571 80.9354 254.785 80.9965 254.988C81.0576 255.192 81.1615 255.379 81.3013 255.539C81.441 255.699 81.6133 255.827 81.8067 255.914C82 256.002 82.2098 256.047 82.4221 256.047H174.173C174.386 256.047 174.595 256.001 174.788 255.914C174.981 255.826 175.154 255.698 175.293 255.538C175.433 255.379 175.536 255.191 175.597 254.988C175.658 254.785 175.675 254.571 175.647 254.361L160.244 140.77C160.216 140.559 160.232 140.345 160.294 140.142C160.355 139.939 160.459 139.751 160.598 139.591C160.738 139.432 160.91 139.304 161.104 139.216C161.297 139.129 161.507 139.083 161.719 139.084H174.389C175.209 139.084 175.875 138.418 175.875 137.596V120.747C175.875 120.552 175.837 120.358 175.762 120.178C175.688 119.997 175.578 119.833 175.44 119.695C175.302 119.557 175.138 119.447 174.957 119.372C174.776 119.298 174.583 119.259 174.388 119.26H161.503C161.109 119.26 160.73 119.103 160.451 118.824C160.172 118.545 160.016 118.166 160.016 117.772V86.3832C160.016 86.1312 159.952 85.8832 159.83 85.6627C159.708 85.4421 159.532 85.2562 159.318 85.1224L129.084 66.226C128.847 66.0783 128.574 66 128.295 66C128.017 66 127.745 66.0783 127.509 66.226Z" fill="#FF6633"/>
<path d="M84.3901 228.968L88.5817 198.06L162.969 160.867L166.627 187.85L84.3901 228.968ZM157.11 256.047H99.4834L171.025 220.276L174.684 247.261L157.11 256.047ZM137.286 139.084L93.617 160.917L96.578 139.084H137.286Z" fill="#FFA385"/>
<path d="M116.402 97.4531C116.402 96.3588 117.291 95.4707 118.385 95.4707H138.209C139.303 95.4707 140.192 96.3588 140.192 97.4531V117.277C140.192 118.371 139.303 119.26 138.209 119.26H118.385C117.291 119.26 116.402 118.371 116.402 117.277V97.4531Z" fill="#FFFF33"/>
<path d="M64.8594 160.89C56.1003 160.89 49 153.79 49 145.031C49 136.272 56.1003 129.172 64.8594 129.172C67.6786 129.171 70.4471 129.921 72.8796 131.346C75.3122 132.771 77.3207 134.819 78.6983 137.279C79.2914 138.335 80.3588 139.084 81.5688 139.084H96.5781C99.4699 139.084 102.243 140.232 104.288 142.277C106.333 144.322 107.482 147.095 107.482 149.987C107.482 152.879 106.333 155.652 104.288 157.697C102.243 159.742 99.4699 160.89 96.5781 160.89H64.8594Z" fill="white"/>
</g>
<defs>
<clipPath id="clip0_679_2">
<rect width="256" height="256" fill="white"/>
</clipPath>
</defs>
</svg>

<svg xmlns="http://www.w3.org/2000/svg" width="256" height="256" fill="none"><g clip-path="url(#clip0_679_2)"><path fill="#06F" d="M196 0H60C26.863 0 0 26.863 0 60v136c0 33.137 26.863 60 60 60h136c33.137 0 60-26.863 60-60V60c0-33.137-26.863-60-60-60"/><path fill="#5DBCEB" d="M175.875 139.084c-8.759 0-15.859-7.101-15.859-15.86s7.1-15.859 15.859-15.859c8.258 0 15.041 6.312 15.791 14.373.076.819.735 1.486 1.556 1.486h6.442a7.93 7.93 0 0 1 0 15.86z"/><path fill="#F63" d="M127.509 66.226 97.278 85.122a1.49 1.49 0 0 0-.7 1.261v31.39c0 .82-.666 1.487-1.487 1.487H82.206a1.483 1.483 0 0 0-1.487 1.487v16.849c0 .822.666 1.488 1.487 1.488h12.67c.901 0 1.594.793 1.474 1.686L80.947 254.361a1.48 1.48 0 0 0 .86 1.553c.193.088.403.133.615.133h91.751a1.5 1.5 0 0 0 1.12-.509 1.5 1.5 0 0 0 .354-1.177L160.244 140.77a1.48 1.48 0 0 1 .354-1.179 1.5 1.5 0 0 1 1.121-.507h12.67c.82 0 1.486-.666 1.486-1.488v-16.849a1.48 1.48 0 0 0-.435-1.052 1.5 1.5 0 0 0-1.052-.435h-12.885a1.49 1.49 0 0 1-1.487-1.488V86.383a1.49 1.49 0 0 0-.698-1.26l-30.234-18.897a1.49 1.49 0 0 0-1.575 0"/><path fill="#FFA385" d="m84.39 228.968 4.192-30.908 74.387-37.193 3.658 26.983zm72.72 27.079H99.483l71.542-35.771 3.659 26.985zm-19.824-116.963-43.669 21.833 2.961-21.833z"/><path fill="#FF3" d="M116.402 97.453c0-1.094.889-1.982 1.983-1.982h19.824c1.094 0 1.983.888 1.983 1.982v19.824a1.985 1.985 0 0 1-1.983 1.983h-19.824a1.985 1.985 0 0 1-1.983-1.983z"/><path fill="#fff" d="M64.86 160.89c-8.76 0-15.86-7.1-15.86-15.859s7.1-15.859 15.86-15.859a15.86 15.86 0 0 1 13.838 8.107c.593 1.056 1.66 1.805 2.87 1.805h15.01a10.902 10.902 0 1 1 0 21.806z"/></g><defs><clipPath id="clip0_679_2"><path fill="#fff" d="M0 0h256v256H0z"/></clipPath></defs></svg>
